X:34
C:Page 17
T:Lord Lowdens March. MBe.34
S:Matthew Betham MS, Towcett Cumbria, 1815
O:England;Cumbria;Towcett
Z:VMP – Hugh Taylor, 2012
T:London March,aka. MBe.34
M:C
L:1/8
Q:1/2=60
R:.March
C:in a different hand-‘William Docker Newby Head’
K:D
F2 F>F F2 E2|D>FA>d B2 A2|B>dA>d G>dF>d|EDEF E2 D>E|
F2 F>F F2 E2|D>FB>d B2 A2|B>dA>d c2 d>e|gf e2 d4:|
a>gf>g aag>f|e>fgg f3 e|ddde fffg|aag>f f2 e2|
a>gf>g aag>f|e>fgg f3 e|ddde fffg|aag>f f2 e2|
f2 f>f f2 e2|d>fA>d B2 A2|B>dA>d G>dF>d|EDEF E2 DE|
F2 F>F F2 E2|D>FB>d B2 A2|B>dA>d c2 d>e|g2 f2 e2 d2|]

